X: 11403
T: The HOME OF MY HEART
C: E. Phelps.
Q: "Not too slow."
%R: air, march
B: W. Hamilton "Universal Tune-Book" Vol. 1 Glasgow 1844 p.140 #3
S: http://imslp.org/wiki/Hamilton's_Universal_Tune-Book_(Various)
Z: 2016 John Chambers <jc:trillian.mit.edu>
M: C
L: 1/8
K: A
%%slurgraces yes
%%graceslurs yes
% - - - - - - - - - - - - - - - - - - - - - - - - -
A>B |\
c>Bcd (ed)Bc | A>GAB c2c>c | (Bf)ed (cB)AG | A2z2 z2A>B |\
c>Bcd ecBc | A>GAB c2dc | Bgf^d e2E>F | G2{G}F>E E2e>=d |
c>BA=G F2fE | (B>c)BA (AG)(FE) | A2A>A A2Bc | d6 zB |\
(c>B)c>d e2ce | (dc)(de) f2ec | dfba agfe | a2z2 z2 |]
% - - - - - - - - - - - - - - - - - - - - - - - - -

%%sep 1 1 500
%%sep 1 1 500

